X: 35332
T: Roses For Elizabeth
R: jig
M: 6/8
K: Dmajor
|:A,B,C|D2DD2E|F2DE2D|E2DE2F|D3 A,B,C|
D2DD2E|F2DE2D|E2DE2F|A3 DEF|
A3A2B|A2G FED|G2F GFE|F2A B2 c|
d2Bc2A|B2G GFE|G2A GFE|1 D2A,:|2 D2 F||
|:ABc|d2A AdA|d2A f2A|e2A AcA|e2A g2 A|
fAa dAa|eAa cAa|g2g gfe|fed AFA|
d2A AdA|d2A f2A|e2A AcA|e2A g2 A|
f2 e fed|edB AGF|G2A GFE|1 D2F:|2 D6||

